!!!OTL: TING TANG TRALLALA WER IST IN MEINEM THORE
!!!ARE: Europa, Mitteleuropa, Deutschland, Oberdiebach am Rhein
!!!SCT: K2138
!!!YEM: Copyright 1995, estate of Helmut Schaffrath.
**kern
*ICvox
*Ivox
!! Mixed meters:  2/4; 4/4
*M2/4
*k[f#]
*G:
=1
{4dd
4ee
=2
8dd
8g
8g}
{8g
=3
8dd
8dd
8ee
8ee
=4
4dd
8b}
{8g
=5
8dd
8dd
8g
8ee
=6
8dd
8b
4g}
=7
{4dd
4ee
=8
2dd}
=9
*M4/4
{4dd
4dd
2b
=10
4dd
4dd
2b
=11
4dd
4dd
2b}
=12
{4dd
4dd
4ee
4ee
=13
4dd
4dd
2b}
==
!!!AGN: Kinder - Lied, Reigen, Tanz - Spiel
!!!ONB: ESAC (Essen Associative Code) Database: KINDER
!!!AMT: irregular
!!!AIN: vox
!!!EED: Helmut Schaffrath
!!!EEV: 1.0
*-
